; generated by PrusaSlicer 2.4.2-rc1+linux-x64-GTK3 on 2022-04-13 at 14:10:11 UTC

; 

; external perimeters extrusion width = 0.45mm
; perimeters extrusion width = 0.45mm
; infill extrusion width = 0.45mm
; solid infill extrusion width = 0.45mm
; top infill extrusion width = 0.40mm
; support material extrusion width = 0.35mm
; first layer extrusion width = 0.42mm

; external perimeters extrusion width = 0.45mm
; perimeters extrusion width = 0.45mm
; infill extrusion width = 0.45mm
; solid infill extrusion width = 0.45mm
; top infill extrusion width = 0.40mm
; support material extrusion width = 0.35mm
; first layer extrusion width = 0.42mm

; external perimeters extrusion width = 0.45mm
; perimeters extrusion width = 0.45mm
; infill extrusion width = 0.45mm
; solid infill extrusion width = 0.45mm
; top infill extrusion width = 0.40mm
; support material extrusion width = 0.35mm
; first layer extrusion width = 0.42mm

; external perimeters extrusion width = 0.45mm
; perimeters extrusion width = 0.45mm
; infill extrusion width = 0.45mm
; solid infill extrusion width = 0.45mm
; top infill extrusion width = 0.40mm
; support material extrusion width = 0.35mm
; first layer extrusion width = 0.42mm

; external perimeters extrusion width = 0.45mm
; perimeters extrusion width = 0.45mm
; infill extrusion width = 0.45mm
; solid infill extrusion width = 0.45mm
; top infill extrusion width = 0.40mm
; support material extrusion width = 0.35mm
; first layer extrusion width = 0.42mm

; external perimeters extrusion width = 0.45mm
; perimeters extrusion width = 0.45mm
; infill extrusion width = 0.45mm
; solid infill extrusion width = 0.45mm
; top infill extrusion width = 0.40mm
; support material extrusion width = 0.35mm
; first layer extrusion width = 0.42mm

; external perimeters extrusion width = 0.45mm
; perimeters extrusion width = 0.45mm
; infill extrusion width = 0.45mm
; solid infill extrusion width = 0.45mm
; top infill extrusion width = 0.40mm
; support material extrusion width = 0.35mm
; first layer extrusion width = 0.42mm

; external perimeters extrusion width = 0.45mm
; perimeters extrusion width = 0.45mm
; infill extrusion width = 0.45mm
; solid infill extrusion width = 0.45mm
; top infill extrusion width = 0.40mm
; support material extrusion width = 0.35mm
; first layer extrusion width = 0.42mm

; external perimeters extrusion width = 0.45mm
; perimeters extrusion width = 0.45mm
; infill extrusion width = 0.45mm
; solid infill extrusion width = 0.45mm
; top infill extrusion width = 0.40mm
; support material extrusion width = 0.35mm
; first layer extrusion width = 0.42mm

; external perimeters extrusion width = 0.45mm
; perimeters extrusion width = 0.45mm
; infill extrusion width = 0.45mm
; solid infill extrusion width = 0.45mm
; top infill extrusion width = 0.40mm
; support material extrusion width = 0.35mm
; first layer extrusion width = 0.42mm

M73 P0 R86
M73 Q0 S87
M201 X1000 Y1000 Z200 E5000 ; sets maximum accelerations, mm/sec^2
M203 X200 Y200 Z12 E120 ; sets maximum feedrates, mm / sec
M204 P1250 R1250 T1250 ; sets acceleration (P, T) and retract acceleration (R), mm/sec^2
M205 X8.00 Y8.00 Z0.40 E4.50 ; sets the jerk limits, mm/sec
M205 S0 T0 ; sets the minimum extruding and travel feed rate, mm/sec
M107 ; disable fan
;TYPE:Custom
M862.3 P "MK3S" ; printer model check
M862.1 P0.4 ; nozzle diameter check
M115 U3.10.1 ; tell printer latest fw version
G90 ; use absolute coordinates
M83 ; extruder relative mode
M104 S215 ; set extruder temp
M140 S60 ; set bed temp
M190 S60 ; wait for bed temp
M109 S215 ; wait for extruder temp
G28 W ; home all without mesh bed level
G80 ; mesh bed leveling
G1 Z0.2 F720
G1 Y-3 F1000 ; go outside print area
G92 E0
G1 X60 E9 F1000 ; intro line
G1 X100 E12.5 F1000 ; intro line
G92 E0
M221 S95

; Don't change E values below. Excessive value can damage the printer.
M907 E430 ; set extruder motor current
G21 ; set units to millimeters
G90 ; use absolute coordinates
M83 ; use relative distances for extrusion
M900 K0.05 ; Filament gcode LA 1.5
M900 K30 ; Filament gcode LA 1.0
M107 ; disable fan
;LAYER_CHANGE
;Z:0.2
;HEIGHT:0.2
;BEFORE_LAYER_CHANGE
G92 E0.0
;0.2


G1 E-.8 F2100 ; retract
M73 Q0 S86
G1 Z.4 F720 ; lift Z
;AFTER_LAYER_CHANGE
;0.2
G1 X130.668 Y64.794 F10800 ; move to first skirt point
G1 Z.2 F720 ; restore layer Z
G1 E.8 F2100 ;  ; unretract
M204 S800 ; adjust acceleration
;TYPE:Skirt/Brim
;WIDTH:0.42
G1 F1200
G1 X136.832 Y54.118 E.3865 ; skirt
G1 X137.701 Y53.25 E.03851 ; skirt
G1 X141.996 Y50.771 E.15549 ; skirt
G1 X143.182 Y50.452 E.03851 ; skirt
G1 X222.657 Y50.452 E2.49189 ; skirt
G1 X223.843 Y50.771 E.03851 ; skirt
G1 X228.138 Y53.25 E.15549 ; skirt
G1 X229.007 Y54.118 E.03851 ; skirt
G1 X235.17 Y64.794 E.3865 ; skirt
G1 X235.48 Y65.796 E.0329 ; skirt
G1 X237.671 Y93.996 E.88687 ; skirt
G1 X237.678 Y104.764 E.33763 ; skirt
G1 X235.48 Y133.149 E.89264 ; skirt
G1 X235.17 Y134.151 E.0329 ; skirt
G1 X229.007 Y144.826 E.38649 ; skirt
G1 X228.538 Y145.404 E.02332 ; skirt
G1 X209.902 Y162.152 E.78563 ; skirt
G1 X205.698 Y165.222 E.16321 ; skirt
G1 X204.552 Y165.663 E.03851 ; skirt
G1 X201.588 Y165.964 E.09339 ; skirt
G1 X164.25 Y165.964 E1.17071 ; skirt
G1 X161.287 Y165.663 E.09339 ; skirt
G1 X160.141 Y165.222 E.03851 ; skirt
G1 X155.937 Y162.152 E.16321 ; skirt
G1 X137.3 Y145.404 E.78563 ; skirt
G1 X136.832 Y144.826 E.02332 ; skirt
G1 X130.668 Y134.151 E.38649 ; skirt
G1 X130.358 Y133.149 E.0329 ; skirt
G1 X128.167 Y104.949 E.88687 ; skirt
G1 X128.16 Y94.181 E.33763 ; skirt
G1 X130.358 Y65.796 E.89264 ; skirt
G1 X130.651 Y64.851 E.03102 ; skirt
M204 S1000 ; adjust acceleration
;WIPE_START
G1 F8640
G1 X132.293 Y61.999 E-.76 ; wipe and retract
;WIPE_END
G1 E-.04 F2100 ; retract
G1 Z.6 F720 ; lift Z
G1 X133.371 Y65.529 F10800 ; move to first brim point
G1 Z.2 F720 ; restore layer Z
G1 E.8 F2100 ;  ; unretract
M204 S800 ; adjust acceleration
G1 F1200
G1 X134.1 Y64.29 E.04508 ; brim
G1 X135.044 Y63.411 E.04044 ; brim
G1 X137.825 Y61.83 E.1003 ; brim
G1 X137.82 Y58.611 E.10092 ; brim
G1 X138.148 Y57.247 E.044 ; brim
G1 X138.807 Y56.097 E.04154 ; brim
G1 X139.768 Y55.16 E.0421 ; brim
G1 X142.419 Y53.601 E.09641 ; brim
G1 X143.79 Y53.171 E.04504 ; brim
G1 X145.209 Y53.154 E.04452 ; brim
G1 X146.553 Y53.542 E.04385 ; brim
G1 X149.344 Y55.172 E.10135 ; brim
G1 X152.095 Y53.563 E.09992 ; brim
G1 X153.429 Y53.161 E.04367 ; brim
G1 X154.754 Y53.149 E.04155 ; brim
G1 X156.064 Y53.511 E.04261 ; brim
G1 X158.77 Y55.044 E.09751 ; brim
G1 X159.978 Y56.226 E.053 ; brim
G1 X160.577 Y57.343 E.03976 ; brim
G1 X160.854 Y58.473 E.03646 ; brim
G1 X160.837 Y61.793 E.1041 ; brim
G1 X163.679 Y63.436 E.10292 ; brim
G1 X164.673 Y64.394 E.0433 ; brim
G1 X164.978 Y64.898 E.01846 ; brim
G1 X165.432 Y64.288 E.02385 ; brim
G1 X166.205 Y63.567 E.03314 ; brim
G1 X167.505 Y62.881 E.0461 ; brim
G1 X169.076 Y62.614 E.04996 ; brim
G1 X171.274 Y62.837 E.06927 ; brim
G1 X171.69 Y60.835 E.06411 ; brim
G1 X172.215 Y59.654 E.04051 ; brim
G1 X173.047 Y58.639 E.04114 ; brim
G1 X174.156 Y57.872 E.04228 ; brim
G1 X177.278 Y56.802 E.10348 ; brim
G1 X178.955 Y56.695 E.05269 ; brim
G1 X180.158 Y56.98 E.03876 ; brim
G1 X181.182 Y57.519 E.03628 ; brim
G1 X182.918 Y59.067 E.07295 ; brim
G1 X184.602 Y57.557 E.07091 ; brim
G1 X185.577 Y57.02 E.03492 ; brim
G1 X186.625 Y56.726 E.03411 ; brim
G1 X188.25 Y56.743 E.05096 ; brim
G1 X191.422 Y57.747 E.10432 ; brim
G1 X192.587 Y58.462 E.04287 ; brim
G1 X193.502 Y59.468 E.04262 ; brim
G1 X194.125 Y60.761 E.04502 ; brim
G1 X194.568 Y62.84 E.06663 ; brim
G1 X196.674 Y62.614 E.06643 ; brim
G1 X198.145 Y62.82 E.04656 ; brim
G1 X199.255 Y63.314 E.03811 ; brim
G1 X200.177 Y64.042 E.03684 ; brim
G1 X200.848 Y64.917 E.03458 ; brim
G1 X201.17 Y64.389 E.01941 ; brim
G1 X202.09 Y63.486 E.04039 ; brim
G1 X204.993 Y61.797 E.10531 ; brim
G1 X204.965 Y58.662 E.0983 ; brim
G1 X205.238 Y57.403 E.0404 ; brim
G1 X205.859 Y56.229 E.04165 ; brim
G1 X206.968 Y55.12 E.04915 ; brim
G1 X209.616 Y53.579 E.09608 ; brim
G1 X211.058 Y53.153 E.04712 ; brim
G1 X212.525 Y53.18 E.04602 ; brim
G1 X213.876 Y53.623 E.04459 ; brim
G1 X216.466 Y55.173 E.09465 ; brim
G1 X219.297 Y53.54 E.10247 ; brim
G1 X220.65 Y53.151 E.04415 ; brim
G1 X221.972 Y53.158 E.04144 ; brim
G1 X223.219 Y53.514 E.04066 ; brim
G1 X225.879 Y55.021 E.09585 ; brim
G1 X226.888 Y55.92 E.0424 ; brim
G1 X227.613 Y57.068 E.04258 ; brim
G1 X227.991 Y58.387 E.043 ; brim
G1 X228 Y61.816 E.1075 ; brim
G1 X230.89 Y63.481 E.10456 ; brim
G1 X231.761 Y64.317 E.03788 ; brim
G1 X232.4 Y65.352 E.03811 ; brim
G1 X232.818 Y66.963 E.05218 ; brim
G1 X232.824 Y69.918 E.09265 ; brim
G1 X232.399 Y71.566 E.05338 ; brim
G1 X231.725 Y72.647 E.03992 ; brim
G1 X230.84 Y73.475 E.03802 ; brim
G1 X227.996 Y75.121 E.10303 ; brim
G1 X227.99 Y78.541 E.10723 ; brim
G1 X227.65 Y79.768 E.03991 ; brim
G1 X227.029 Y80.825 E.03842 ; brim
G1 X226.223 Y81.642 E.03599 ; brim
G1 X225.251 Y82.229 E.03561 ; brim
G1 X226.005 Y82.79 E.02948 ; brim
G1 X226.851 Y83.846 E.04241 ; brim
G1 X227.412 Y85.246 E.04729 ; brim
G1 X227.726 Y87.792 E.08043 ; brim
G1 X230.299 Y88.116 E.08134 ; brim
G1 X231.494 Y88.565 E.04002 ; brim
G1 X232.55 Y89.335 E.04096 ; brim
G1 X233.48 Y90.566 E.0484 ; brim
G1 X234.72 Y93.62 E.10335 ; brim
G1 X234.886 Y94.77 E.03643 ; brim
G1 X234.778 Y95.893 E.03538 ; brim
G1 X234.171 Y97.402 E.05098 ; brim
G1 X232.563 Y99.471 E.08216 ; brim
G1 X234.131 Y101.481 E.07995 ; brim
G1 X234.666 Y102.63 E.03973 ; brim
G1 X234.883 Y103.911 E.04072 ; brim
G1 X234.726 Y105.298 E.04379 ; brim
G1 X233.465 Y108.402 E.10504 ; brim
G1 X232.743 Y109.417 E.03906 ; brim
G1 X231.828 Y110.184 E.03741 ; brim
G1 X230.377 Y110.81 E.04956 ; brim
G1 X227.729 Y111.151 E.08373 ; brim
G1 X227.434 Y113.597 E.07724 ; brim
G1 X226.949 Y114.929 E.04446 ; brim
G1 X226.101 Y116.06 E.04432 ; brim
G1 X225.272 Y116.707 E.03298 ; brim
G1 X226.047 Y117.167 E.02828 ; brim
G1 X226.943 Y118.013 E.03861 ; brim
G1 X227.688 Y119.269 E.04581 ; brim
G1 X228.027 Y120.717 E.04662 ; brim
G1 X227.986 Y123.818 E.09725 ; brim
G1 X230.857 Y125.482 E.10403 ; brim
G1 X231.762 Y126.344 E.03916 ; brim
G1 X232.422 Y127.43 E.03985 ; brim
G1 X232.824 Y129.034 E.05187 ; brim
G1 X232.824 Y131.938 E.09105 ; brim
G1 X232.48 Y133.399 E.04706 ; brim
G1 X231.814 Y134.561 E.04198 ; brim
G1 X230.844 Y135.497 E.04226 ; brim
G1 X227.994 Y137.132 E.10301 ; brim
G1 X228.026 Y140.237 E.09736 ; brim
G1 X227.773 Y141.479 E.03976 ; brim
G1 X227.146 Y142.693 E.04283 ; brim
G1 X226.197 Y143.688 E.04311 ; brim
G1 X223.316 Y145.387 E.10488 ; brim
G1 X222.256 Y145.738 E.03499 ; brim
G1 X221.111 Y145.836 E.03604 ; brim
G1 X219.646 Y145.547 E.04682 ; brim
G1 X216.495 Y143.768 E.11345 ; brim
G1 X213.602 Y145.445 E.10485 ; brim
G1 X212.077 Y145.822 E.04924 ; brim
G1 X211.71 Y145.825 E.01151 ; brim
G1 X211.949 Y146.589 E.0251 ; brim
G1 X212.077 Y147.671 E.03417 ; brim
G1 X211.85 Y149.141 E.04664 ; brim
G1 X211.055 Y150.667 E.05395 ; brim
G1 X208.894 Y153.021 E.10018 ; brim
G1 X208.524 Y153.272 E.01401 ; brim
G1 X208.644 Y153.611 E.01125 ; brim
G1 X209.023 Y157.288 E.11591 ; brim
G1 X208.829 Y158.439 E.0366 ; brim
G1 X208.4 Y159.445 E.03428 ; brim
G1 X207.58 Y160.504 E.04199 ; brim
G1 X204.952 Y162.465 E.10283 ; brim
G1 X203.92 Y162.947 E.0357 ; brim
G1 X202.641 Y163.184 E.04079 ; brim
G1 X201.137 Y163.02 E.04743 ; brim
G1 X197.943 Y161.637 E.10913 ; brim
G1 X197.481 Y161.285 E.01822 ; brim
G1 X197.04 Y161.624 E.01745 ; brim
G1 X193.943 Y162.984 E.10604 ; brim
G1 X192.427 Y163.189 E.04797 ; brim
G1 X191.182 Y162.992 E.03952 ; brim
G1 X190.062 Y162.496 E.03842 ; brim
G1 X187.483 Y160.603 E.10031 ; brim
G1 X186.487 Y159.32 E.05093 ; brim
G1 X186.105 Y158.354 E.03258 ; brim
G1 X185.935 Y157.304 E.03334 ; brim
G1 X186.282 Y153.741 E.11225 ; brim
G1 X186.45 Y153.27 E.01566 ; brim
G1 X185.975 Y152.941 E.0181 ; brim
G1 X183.705 Y150.379 E.10735 ; brim
G1 X182.912 Y148.674 E.05894 ; brim
G1 X182.136 Y150.376 E.05865 ; brim
G1 X179.863 Y152.941 E.10746 ; brim
G1 X179.389 Y153.27 E.01808 ; brim
G1 X179.555 Y153.734 E.01545 ; brim
G1 X179.906 Y157.226 E.11004 ; brim
G1 X179.736 Y158.344 E.03545 ; brim
G1 X179.306 Y159.4 E.03578 ; brim
G1 X178.302 Y160.654 E.05035 ; brim
G1 X175.831 Y162.466 E.09606 ; brim
G1 X174.49 Y163.038 E.04572 ; brim
G1 X173.103 Y163.187 E.04372 ; brim
G1 X171.761 Y162.944 E.04275 ; brim
G1 X168.792 Y161.62 E.10195 ; brim
G1 X168.357 Y161.285 E.01721 ; brim
G1 X167.894 Y161.637 E.01822 ; brim
G1 X164.698 Y163.021 E.10921 ; brim
G1 X163.194 Y163.184 E.04743 ; brim
G1 X161.92 Y162.948 E.04063 ; brim
G1 X160.89 Y162.467 E.03564 ; brim
G1 X158.296 Y160.541 E.10127 ; brim
G1 X157.412 Y159.398 E.04532 ; brim
G1 X157.008 Y158.434 E.03278 ; brim
G1 X156.815 Y157.288 E.03644 ; brim
G1 X157.194 Y153.611 E.11591 ; brim
G1 X157.314 Y153.272 E.01125 ; brim
G1 X156.945 Y153.021 E.01401 ; brim
G1 X154.782 Y150.666 E.10025 ; brim
G1 X153.967 Y149.072 E.05614 ; brim
G1 X153.762 Y147.718 E.04293 ; brim
G1 X153.881 Y146.63 E.03432 ; brim
G1 X154.13 Y145.825 E.02642 ; brim
G1 X153.758 Y145.821 E.01167 ; brim
G1 X152.307 Y145.474 E.04677 ; brim
G1 X149.345 Y143.769 E.10718 ; brim
G1 X146.273 Y145.516 E.11081 ; brim
G1 X144.74 Y145.836 E.04909 ; brim
G1 X143.582 Y145.738 E.03642 ; brim
G1 X142.523 Y145.387 E.035 ; brim
G1 X139.642 Y143.688 E.10488 ; brim
G1 X138.693 Y142.693 E.04311 ; brim
G1 X138.066 Y141.479 E.04283 ; brim
G1 X137.812 Y140.237 E.03976 ; brim
G1 X137.844 Y137.132 E.09736 ; brim
G1 X134.986 Y135.492 E.1033 ; brim
G1 X134.075 Y134.624 E.03947 ; brim
G1 X133.413 Y133.532 E.04004 ; brim
G1 X133.015 Y131.933 E.05166 ; brim
G1 X133.015 Y129.037 E.0908 ; brim
G1 X133.407 Y127.453 E.05117 ; brim
G1 X134.068 Y126.356 E.04018 ; brim
G1 X134.95 Y125.505 E.03843 ; brim
G1 X137.844 Y123.823 E.10493 ; brim
G1 X137.808 Y120.768 E.09578 ; brim
G1 X138.108 Y119.375 E.04467 ; brim
G1 X138.741 Y118.212 E.04151 ; brim
G1 X139.657 Y117.272 E.04115 ; brim
G1 X140.581 Y116.709 E.03392 ; brim
G1 X139.689 Y116.011 E.03551 ; brim
G1 X138.857 Y114.868 E.04434 ; brim
G1 X138.414 Y113.637 E.041 ; brim
G1 X138.111 Y111.152 E.07849 ; brim
G1 X135.566 Y110.838 E.0804 ; brim
G1 X134.112 Y110.245 E.04924 ; brim
G1 X133.1 Y109.421 E.04094 ; brim
G1 X132.355 Y108.369 E.04042 ; brim
G1 X131.151 Y105.447 E.09906 ; brim
G1 X130.955 Y103.91 E.04858 ; brim
G1 X131.159 Y102.676 E.03924 ; brim
G1 X131.662 Y101.556 E.03849 ; brim
G1 X133.275 Y99.471 E.08265 ; brim
G1 X131.617 Y97.313 E.08531 ; brim
G1 X131.087 Y96.002 E.04434 ; brim
G1 X130.956 Y94.665 E.04213 ; brim
G1 X131.157 Y93.481 E.03766 ; brim
G1 X132.36 Y90.563 E.09896 ; brim
G1 X133.213 Y89.409 E.045 ; brim
G1 X134.305 Y88.587 E.04286 ; brim
G1 X135.499 Y88.126 E.04014 ; brim
G1 X138.111 Y87.792 E.08256 ; brim
G1 X138.414 Y85.296 E.07884 ; brim
G1 X138.999 Y83.827 E.04956 ; brim
G1 X139.912 Y82.718 E.04505 ; brim
G1 X140.595 Y82.235 E.02622 ; brim
G1 X139.608 Y81.636 E.03622 ; brim
G1 X138.773 Y80.777 E.03755 ; brim
G1 X138.168 Y79.718 E.03826 ; brim
G1 X137.849 Y78.539 E.03827 ; brim
G1 X137.843 Y75.121 E.10718 ; brim
G1 X134.978 Y73.459 E.10385 ; brim
G1 X134.068 Y72.59 E.03946 ; brim
G1 X133.411 Y71.502 E.03984 ; brim
G1 X133.02 Y69.953 E.05008 ; brim
G1 X133.026 Y66.913 E.09533 ; brim
G1 X133.357 Y65.587 E.04283 ; brim
M204 S1000 ; adjust acceleration
;WIPE_START
G1 F8640
G1 X134.1 Y64.29 E-.34528 ; wipe and retract
G1 X135.044 Y63.411 E-.29778 ; wipe and retract
G1 X135.484 Y63.161 E-.11693 ; wipe and retract
;WIPE_END
G1 E-.04 F2100 ; retract
G1 Z.6 F720 ; lift Z
G1 X182.915 Y139.877 F10800 ; move to first brim point
G1 Z.2 F720 ; restore layer Z
G1 E.8 F2100 ;  ; unretract
M204 S800 ; adjust acceleration
M73 Q1 S86
G1 F1200
G1 X184.509 Y141.322 E.06747 ; brim
G1 X185.392 Y141.815 E.03171 ; brim
G1 X184.874 Y142.271 E.02164 ; brim
G1 X184.052 Y143.473 E.04564 ; brim
G1 X183.055 Y146.427 E.09775 ; brim
M73 P1 R86
G1 X182.783 Y146.426 E.00851 ; brim
G1 X181.835 Y143.576 E.09419 ; brim
G1 X181.264 Y142.629 E.03467 ; brim
M73 P1 R85
G1 X180.47 Y141.791 E.03621 ; brim
G1 X181.205 Y141.409 E.02599 ; brim
