; generated by PrusaSlicer 2.4.2-rc1+linux-x64-GTK3 on 2022-04-13 at 11:10:51 UTC

; 

; external perimeters extrusion width = 0.45mm
; perimeters extrusion width = 0.45mm
; infill extrusion width = 0.45mm
; solid infill extrusion width = 0.45mm
; top infill extrusion width = 0.40mm
; support material extrusion width = 0.35mm
; first layer extrusion width = 0.42mm

; external perimeters extrusion width = 0.45mm
; perimeters extrusion width = 0.45mm
; infill extrusion width = 0.45mm
; solid infill extrusion width = 0.45mm
; top infill extrusion width = 0.40mm
; support material extrusion width = 0.35mm
; first layer extrusion width = 0.42mm

; external perimeters extrusion width = 0.45mm
; perimeters extrusion width = 0.45mm
; infill extrusion width = 0.45mm
; solid infill extrusion width = 0.45mm
; top infill extrusion width = 0.40mm
; support material extrusion width = 0.35mm
; first layer extrusion width = 0.42mm

M73 P0 R100
M73 Q0 S101
M201 X1000 Y1000 Z200 E5000 ; sets maximum accelerations, mm/sec^2
M203 X200 Y200 Z12 E120 ; sets maximum feedrates, mm / sec
M204 P1250 R1250 T1250 ; sets acceleration (P, T) and retract acceleration (R), mm/sec^2
M205 X8.00 Y8.00 Z0.40 E4.50 ; sets the jerk limits, mm/sec
M205 S0 T0 ; sets the minimum extruding and travel feed rate, mm/sec
M107 ; disable fan
;TYPE:Custom
M862.3 P "MK3S" ; printer model check
M862.1 P0.4 ; nozzle diameter check
M115 U3.10.1 ; tell printer latest fw version
G90 ; use absolute coordinates
M83 ; extruder relative mode
M104 S215 ; set extruder temp
M140 S60 ; set bed temp
M190 S60 ; wait for bed temp
M109 S215 ; wait for extruder temp
G28 W ; home all without mesh bed level
G80 ; mesh bed leveling
G1 Z0.2 F720
G1 Y-3 F1000 ; go outside print area
G92 E0
G1 X60 E9 F1000 ; intro line
G1 X100 E12.5 F1000 ; intro line
G92 E0
M221 S95

; Don't change E values below. Excessive value can damage the printer.
M907 E430 ; set extruder motor current
G21 ; set units to millimeters
G90 ; use absolute coordinates
M83 ; use relative distances for extrusion
M900 K0.05 ; Filament gcode LA 1.5
M900 K30 ; Filament gcode LA 1.0
M107 ; disable fan
;LAYER_CHANGE
;Z:0.2
;HEIGHT:0.2
;BEFORE_LAYER_CHANGE
G92 E0.0
;0.2


G1 E-.8 F2100 ; retract
G1 Z.4 F720 ; lift Z
;AFTER_LAYER_CHANGE
;0.2
G1 X130.31 Y63.015 F10800 ; move to first skirt point
G1 Z.2 F720 ; restore layer Z
G1 E.8 F2100 ;  ; unretract
M204 S800 ; adjust acceleration
;TYPE:Skirt/Brim
;WIDTH:0.42
G1 F1200
G1 X138.321 Y52.646 E.41085 ; skirt
G1 X164.338 Y26.449 E1.15764 ; skirt
G1 X165.831 Y25.761 E.05156 ; skirt
G1 X178.506 Y24.764 E.39863 ; skirt
G1 X210.519 Y24.772 E1.00373 ; skirt
G1 X223.006 Y25.761 E.39275 ; skirt
G1 X224.609 Y26.56 E.05618 ; skirt
G1 X225.306 Y28.241 E.05704 ; skirt
G1 X225.293 Y41.317 E.40999 ; skirt
G1 X210.805 Y180.452 E4.38608 ; skirt
G1 X210.501 Y181.392 E.03099 ; skirt
G1 X209.139 Y183.756 E.08552 ; skirt
G1 X208.54 Y184.445 E.02864 ; skirt
G1 X202.014 Y189.526 E.25932 ; skirt
G1 X200.553 Y190.027 E.04841 ; skirt
G1 X188.284 Y190.027 E.3847 ; skirt
G1 X186.824 Y189.526 E.04841 ; skirt
G1 X180.297 Y184.445 E.25932 ; skirt
G1 X179.782 Y183.892 E.0237 ; skirt
G1 X135.398 Y117.593 E2.50159 ; skirt
G1 X133.165 Y113.754 E.13924 ; skirt
G1 X132.926 Y113.179 E.01953 ; skirt
G1 X132.5 Y111.424 E.05663 ; skirt
G1 X129.816 Y72.513 E1.22291 ; skirt
G1 X129.816 Y64.466 E.25231 ; skirt
G1 X130.29 Y63.072 E.04617 ; skirt
M204 S1000 ; adjust acceleration
;WIPE_START
G1 F8640
G1 X132.299 Y60.464 E-.76 ; wipe and retract
;WIPE_END
G1 E-.04 F2100 ; retract
G1 Z.6 F720 ; lift Z
G1 X180.697 Y65.636 F10800 ; move to first brim point
G1 Z.2 F720 ; restore layer Z
G1 E.8 F2100 ;  ; unretract
M204 S800 ; adjust acceleration
G1 F1200
G1 X180.989 Y64.391 E.04008 ; brim
G1 X181.635 Y63.209 E.04225 ; brim
G1 X182.638 Y62.181 E.04503 ; brim
G1 X181.712 Y61.258 E.04099 ; brim
G1 X181.033 Y60.092 E.0423 ; brim
G1 X180.692 Y58.679 E.04558 ; brim
G1 X180.697 Y55.579 E.09722 ; brim
G1 X181.104 Y54.062 E.04924 ; brim
G1 X181.699 Y53.078 E.03605 ; brim
G1 X182.641 Y52.126 E.04199 ; brim
G1 X181.711 Y51.209 E.04098 ; brim
G1 X181.037 Y50.054 E.04191 ; brim
G1 X180.705 Y48.746 E.04232 ; brim
G1 X180.682 Y45.663 E.09668 ; brim
G1 X181.093 Y44.039 E.05252 ; brim
G1 X181.697 Y43.033 E.0368 ; brim
G1 X182.644 Y42.077 E.04216 ; brim
G1 X182.204 Y41.648 E.01927 ; brim
G1 X179.963 Y41.624 E.07024 ; brim
G1 X178.628 Y41.236 E.04361 ; brim
G1 X177.604 Y40.604 E.03773 ; brim
G1 X176.755 Y39.727 E.03827 ; brim
G1 X176.253 Y38.895 E.03049 ; brim
G1 X175.805 Y37.282 E.05246 ; brim
G1 X175.805 Y31.822 E.17122 ; brim
G1 X176.186 Y30.337 E.04806 ; brim
G1 X177.044 Y29 E.04979 ; brim
G1 X177.619 Y28.467 E.02461 ; brim
G1 X178.223 Y28.039 E.02321 ; brim
G1 X180.173 Y27.428 E.06406 ; brim
G1 X208.609 Y27.432 E.89159 ; brim
G1 X209.711 Y27.651 E.03524 ; brim
G1 X210.741 Y28.124 E.03556 ; brim
G1 X211.797 Y29.01 E.04319 ; brim
G1 X212.565 Y30.146 E.04301 ; brim
G1 X212.977 Y31.434 E.0424 ; brim
G1 X213.033 Y37.248 E.18231 ; brim
G1 X212.691 Y38.643 E.04502 ; brim
G1 X212.209 Y39.556 E.03238 ; brim
G1 X211.501 Y40.37 E.03382 ; brim
G1 X210.636 Y41.024 E.034 ; brim
G1 X208.96 Y41.61 E.05569 ; brim
G1 X206.638 Y41.644 E.0728 ; brim
G1 X206.16 Y42.11 E.02095 ; brim
G1 X206.439 Y42.306 E.01069 ; brim
G1 X207.402 Y43.399 E.04568 ; brim
G1 X207.935 Y44.538 E.03941 ; brim
G1 X208.155 Y45.717 E.03762 ; brim
G1 X208.135 Y48.73 E.09448 ; brim
G1 X207.796 Y50.062 E.04309 ; brim
M73 P0 R99
G1 X207.182 Y51.137 E.0388 ; brim
G1 X206.176 Y52.166 E.04513 ; brim
G1 X206.439 Y52.353 E.01009 ; brim
G1 X207.402 Y53.447 E.0457 ; brim
G1 X207.935 Y54.585 E.03941 ; brim
G1 X208.155 Y55.764 E.03762 ; brim
G1 X208.135 Y58.778 E.09448 ; brim
G1 X207.796 Y60.11 E.04309 ; brim
G1 X207.182 Y61.184 E.0388 ; brim
G1 X206.176 Y62.214 E.04514 ; brim
G1 X206.439 Y62.4 E.0101 ; brim
G1 X207.402 Y63.494 E.0457 ; brim
G1 X207.935 Y64.632 E.03941 ; brim
G1 X208.155 Y65.812 E.03762 ; brim
G1 X208.135 Y68.825 E.09448 ; brim
G1 X207.796 Y70.157 E.04309 ; brim
G1 X207.182 Y71.232 E.0388 ; brim
G1 X206.176 Y72.261 E.04513 ; brim
G1 X206.439 Y72.447 E.01009 ; brim
G1 X207.402 Y73.541 E.0457 ; brim
G1 X207.935 Y74.68 E.03941 ; brim
G1 X208.155 Y75.859 E.03762 ; brim
G1 X208.135 Y78.872 E.09448 ; brim
G1 X207.796 Y80.204 E.04309 ; brim
G1 X207.182 Y81.279 E.0388 ; brim
G1 X206.176 Y82.308 E.04513 ; brim
G1 X206.439 Y82.494 E.01009 ; brim
G1 X207.402 Y83.588 E.0457 ; brim
G1 X207.935 Y84.727 E.03941 ; brim
G1 X208.155 Y85.906 E.03762 ; brim
G1 X208.135 Y88.919 E.09448 ; brim
G1 X207.796 Y90.251 E.04309 ; brim
G1 X207.182 Y91.326 E.0388 ; brim
G1 X206.176 Y92.355 E.04513 ; brim
G1 X206.439 Y92.542 E.0101 ; brim
G1 X207.402 Y93.636 E.0457 ; brim
G1 X207.935 Y94.774 E.03941 ; brim
G1 X208.155 Y95.953 E.03762 ; brim
G1 X208.135 Y98.967 E.09448 ; brim
G1 X207.796 Y100.299 E.04309 ; brim
G1 X207.182 Y101.373 E.0388 ; brim
G1 X206.176 Y102.403 E.04513 ; brim
G1 X206.439 Y102.589 E.01009 ; brim
G1 X207.402 Y103.683 E.0457 ; brim
G1 X207.935 Y104.821 E.03941 ; brim
G1 X208.155 Y106.001 E.03762 ; brim
G1 X208.135 Y109.014 E.09448 ; brim
G1 X207.796 Y110.346 E.04309 ; brim
G1 X207.182 Y111.421 E.0388 ; brim
G1 X206.176 Y112.45 E.04513 ; brim
G1 X206.439 Y112.636 E.0101 ; brim
G1 X207.402 Y113.73 E.0457 ; brim
G1 X207.935 Y114.869 E.03941 ; brim
G1 X208.155 Y116.048 E.03762 ; brim
G1 X208.135 Y119.061 E.09448 ; brim
G1 X207.796 Y120.393 E.0431 ; brim
G1 X207.182 Y121.468 E.0388 ; brim
G1 X206.176 Y122.497 E.04513 ; brim
G1 X206.439 Y122.683 E.01009 ; brim
G1 X207.402 Y123.777 E.0457 ; brim
G1 X207.935 Y124.916 E.03941 ; brim
G1 X208.155 Y126.095 E.03762 ; brim
G1 X208.135 Y129.109 E.09448 ; brim
G1 X207.796 Y130.441 E.04309 ; brim
G1 X207.182 Y131.515 E.0388 ; brim
G1 X206.176 Y132.544 E.04512 ; brim
G1 X206.437 Y132.73 E.01003 ; brim
G1 X207.393 Y133.811 E.04525 ; brim
G1 X207.909 Y134.886 E.03738 ; brim
G1 X208.151 Y136.089 E.03848 ; brim
G1 X208.135 Y139.15 E.09597 ; brim
G1 X207.799 Y140.481 E.04303 ; brim
G1 X207.191 Y141.551 E.03859 ; brim
G1 X206.402 Y142.376 E.0358 ; brim
G1 X206.141 Y142.567 E.01014 ; brim
G1 X206.435 Y142.776 E.01134 ; brim
G1 X207.383 Y143.843 E.04473 ; brim
G1 X207.887 Y144.87 E.03591 ; brim
G1 X208.134 Y145.966 E.03522 ; brim
G1 X208.148 Y149.082 E.09769 ; brim
G1 X207.804 Y150.513 E.04615 ; brim
G1 X207.197 Y151.59 E.03876 ; brim
G1 X206.453 Y152.382 E.03407 ; brim
G1 X206.178 Y152.569 E.01043 ; brim
G1 X207.351 Y153.844 E.05431 ; brim
G1 X207.862 Y154.846 E.03527 ; brim
G1 X208.12 Y155.895 E.03387 ; brim
G1 X208.148 Y159.13 E.10144 ; brim
G1 X207.786 Y160.609 E.04773 ; brim
G1 X207.198 Y161.637 E.03715 ; brim
G1 X206.454 Y162.429 E.03408 ; brim
G1 X206.162 Y162.627 E.01104 ; brim
G1 X207.159 Y163.624 E.04422 ; brim
G1 X207.855 Y164.877 E.04492 ; brim
G1 X208.138 Y166.106 E.03957 ; brim
G1 X208.133 Y169.309 E.10042 ; brim
G1 X207.871 Y170.433 E.03617 ; brim
G1 X207.336 Y171.492 E.03721 ; brim
G1 X206.438 Y172.488 E.04203 ; brim
G1 X206.127 Y172.706 E.01193 ; brim
G1 X206.449 Y172.925 E.01221 ; brim
G1 X207.193 Y173.715 E.03405 ; brim
G1 X207.8 Y174.786 E.03859 ; brim
G1 X208.142 Y176.173 E.04478 ; brim
G1 X208.124 Y179.426 E.10201 ; brim
G1 X207.886 Y180.444 E.03277 ; brim
G1 X207.442 Y181.38 E.03249 ; brim
G1 X206.488 Y182.49 E.0459 ; brim
G1 X203.363 Y184.369 E.11432 ; brim
G1 X202.802 Y184.546 E.01846 ; brim
G1 X202.3 Y185.45 E.0324 ; brim
G1 X201.443 Y186.331 E.03853 ; brim
G1 X200.258 Y187.02 E.04299 ; brim
G1 X198.793 Y187.364 E.04717 ; brim
G1 X189.955 Y187.364 E.27711 ; brim
G1 X188.16 Y186.829 E.05873 ; brim
G1 X187.18 Y186.143 E.03751 ; brim
G1 X186.45 Y185.329 E.03429 ; brim
G1 X186.025 Y184.543 E.028 ; brim
G1 X185.468 Y184.367 E.01832 ; brim
G1 X182.282 Y182.433 E.11687 ; brim
G1 X181.366 Y181.33 E.04495 ; brim
G1 X180.901 Y180.295 E.03557 ; brim
G1 X180.685 Y179.157 E.03632 ; brim
G1 X180.702 Y176.108 E.0956 ; brim
G1 X181.041 Y174.776 E.0431 ; brim
G1 X181.655 Y173.702 E.0388 ; brim
G1 X182.672 Y172.665 E.04556 ; brim
G1 X182.347 Y172.443 E.01235 ; brim
G1 X181.438 Y171.396 E.04347 ; brim
G1 X180.923 Y170.317 E.03746 ; brim
G1 X180.69 Y169.161 E.03698 ; brim
G1 X180.702 Y166.067 E.09701 ; brim
G1 X181.018 Y164.786 E.04139 ; brim
G1 X181.647 Y163.665 E.0403 ; brim
G1 X182.659 Y162.627 E.04544 ; brim
G1 X182.41 Y162.45 E.00958 ; brim
G1 X181.511 Y161.458 E.04197 ; brim
G1 X180.939 Y160.316 E.04004 ; brim
G1 X180.686 Y159.067 E.03996 ; brim
G1 X180.696 Y156.066 E.09411 ; brim
G1 X181.038 Y154.691 E.04441 ; brim
G1 X181.644 Y153.621 E.03855 ; brim
G1 X182.389 Y152.831 E.03405 ; brim
G1 X182.658 Y152.647 E.01022 ; brim
G1 X181.474 Y151.354 E.05496 ; brim
G1 X180.923 Y150.222 E.03947 ; brim
G1 X180.69 Y149.066 E.03697 ; brim
G1 X180.702 Y145.976 E.0969 ; brim
G1 X181.038 Y144.643 E.0431 ; brim
G1 X181.717 Y143.48 E.04222 ; brim
G1 X182.669 Y142.534 E.04206 ; brim
G1 X182.399 Y142.345 E.01034 ; brim
G1 X181.466 Y141.296 E.04402 ; brim
G1 X180.918 Y140.159 E.03955 ; brim
G1 X180.685 Y138.969 E.03802 ; brim
G1 X180.709 Y135.871 E.09715 ; brim
G1 X181.042 Y134.585 E.04164 ; brim
G1 X181.627 Y133.55 E.0373 ; brim
G1 X182.669 Y132.473 E.04696 ; brim
G1 X182.347 Y132.254 E.01222 ; brim
G1 X181.438 Y131.208 E.04345 ; brim
G1 X180.938 Y130.173 E.03601 ; brim
G1 X180.694 Y129.011 E.03726 ; brim
G1 X180.696 Y125.928 E.09666 ; brim
G1 X181.017 Y124.6 E.04282 ; brim
G1 X181.647 Y123.476 E.04042 ; brim
G1 X182.662 Y122.436 E.04554 ; brim
G1 X182.399 Y122.251 E.01007 ; brim
G1 X181.469 Y121.206 E.04386 ; brim
G1 X180.939 Y120.126 E.03775 ; brim
G1 X180.69 Y118.926 E.03841 ; brim
G1 X180.696 Y115.88 E.0955 ; brim
G1 X181.038 Y114.502 E.04451 ; brim
G1 X181.618 Y113.467 E.03719 ; brim
G1 X182.435 Y112.604 E.03725 ; brim
G1 X182.694 Y112.415 E.01006 ; brim
G1 X182.41 Y112.213 E.0109 ; brim
G1 X181.511 Y111.221 E.04197 ; brim
G1 X180.94 Y110.08 E.04002 ; brim
G1 X180.689 Y108.868 E.03879 ; brim
G1 X180.696 Y105.83 E.09526 ; brim
G1 X181.038 Y104.455 E.04444 ; brim
G1 X181.644 Y103.385 E.03855 ; brim
G1 X182.389 Y102.594 E.03406 ; brim
G1 X182.658 Y102.41 E.01023 ; brim
G1 X181.505 Y101.164 E.05324 ; brim
G1 X180.924 Y99.988 E.04111 ; brim
G1 X180.694 Y98.87 E.03579 ; brim
G1 X180.708 Y95.693 E.09962 ; brim
G1 X181.058 Y94.357 E.0433 ; brim
G1 X181.686 Y93.283 E.03902 ; brim
G1 X182.676 Y92.289 E.04398 ; brim
G1 X182.348 Y92.066 E.01244 ; brim
G1 X181.443 Y91.025 E.04325 ; brim
G1 X180.928 Y89.953 E.0373 ; brim
G1 X180.69 Y88.789 E.03726 ; brim
G1 X180.696 Y85.739 E.09563 ; brim
G1 X181.017 Y84.411 E.04282 ; brim
G1 X181.649 Y83.285 E.0405 ; brim
G1 X182.658 Y82.247 E.0454 ; brim
G1 X182.402 Y82.064 E.00988 ; brim
G1 X181.484 Y81.04 E.04312 ; brim
G1 X180.967 Y80.018 E.03588 ; brim
G1 X180.71 Y78.924 E.03524 ; brim
G1 X180.689 Y75.76 E.09924 ; brim
G1 X181.051 Y74.278 E.04782 ; brim
G1 X181.64 Y73.249 E.03716 ; brim
G1 X182.384 Y72.457 E.03407 ; brim
G1 X182.676 Y72.26 E.01105 ; brim
G1 X181.511 Y71.033 E.05304 ; brim
G1 X180.965 Y69.965 E.03762 ; brim
G1 X180.7 Y68.779 E.03811 ; brim
G1 X180.697 Y65.696 E.09666 ; brim
M204 S1000 ; adjust acceleration
G1 X181.075 Y65.696 F10800 ; move to first brim point
M204 S800 ; adjust acceleration
G1 F1200
G1 X181.35 Y64.504 E.03833 ; brim
G1 X181.952 Y63.415 E.03904 ; brim
G1 X182.776 Y62.579 E.03679 ; brim
G1 X183.429 Y62.183 E.02395 ; brim
G1 X182.778 Y61.788 E.02388 ; brim
G1 X182.024 Y61.045 E.03321 ; brim
G1 X181.392 Y59.975 E.03894 ; brim
G1 X181.069 Y58.657 E.04256 ; brim
G1 X181.074 Y55.604 E.09572 ; brim
G1 X181.44 Y54.234 E.04445 ; brim
G1 X182.009 Y53.293 E.03449 ; brim
G1 X182.724 Y52.574 E.03178 ; brim
G1 X183.438 Y52.147 E.0261 ; brim
G1 X182.818 Y51.771 E.02275 ; brim
G1 X182.022 Y50.995 E.03486 ; brim
G1 X181.395 Y49.934 E.03864 ; brim
G1 X181.082 Y48.72 E.03931 ; brim
G1 X181.059 Y45.684 E.09519 ; brim
G1 X181.431 Y44.209 E.04768 ; brim
G1 X182.009 Y43.246 E.03521 ; brim
G1 X182.724 Y42.527 E.03181 ; brim
G1 X183.432 Y42.103 E.02588 ; brim
G1 X182.845 Y41.747 E.02153 ; brim
G1 X182.359 Y41.273 E.0213 ; brim
G1 X179.994 Y41.247 E.07415 ; brim
G1 X178.76 Y40.883 E.04035 ; brim
G1 X177.824 Y40.297 E.03462 ; brim
G1 X177.066 Y39.512 E.03422 ; brim
G1 X176.608 Y38.766 E.02743 ; brim
G1 X176.182 Y37.256 E.0492 ; brim
G1 X176.182 Y31.846 E.16962 ; brim
G1 X176.543 Y30.461 E.04486 ; brim
G1 X177.317 Y29.261 E.04479 ; brim
G1 X177.866 Y28.752 E.02347 ; brim
G1 X178.416 Y28.364 E.02111 ; brim
G1 X180.201 Y27.805 E.05864 ; brim
G1 X208.589 Y27.809 E.89009 ; brim
G1 X209.614 Y28.017 E.0328 ; brim
G1 X210.52 Y28.43 E.03123 ; brim
G1 X211.501 Y29.245 E.03997 ; brim
G1 X212.216 Y30.29 E.03969 ; brim
G1 X212.6 Y31.467 E.03884 ; brim
G1 X212.656 Y37.227 E.18062 ; brim
G1 X212.331 Y38.528 E.04203 ; brim
G1 X211.887 Y39.358 E.02952 ; brim
G1 X211.231 Y40.106 E.03119 ; brim
G1 X210.434 Y40.704 E.03125 ; brim
G1 X208.866 Y41.244 E.05198 ; brim
G1 X206.483 Y41.268 E.07472 ; brim
G1 X205.992 Y41.747 E.02152 ; brim
G1 X205.405 Y42.103 E.02153 ; brim
G1 X206.18 Y42.582 E.02856 ; brim
G1 X207.073 Y43.586 E.04215 ; brim
G1 X207.569 Y44.633 E.03631 ; brim
G1 X207.778 Y45.733 E.03513 ; brim
G1 X207.758 Y48.704 E.09316 ; brim
G1 X207.438 Y49.942 E.0401 ; brim
G1 X206.868 Y50.928 E.0357 ; brim
G1 X206.144 Y51.674 E.03259 ; brim
G1 X205.382 Y52.137 E.02795 ; brim
G1 X206.18 Y52.629 E.02939 ; brim
G1 X207.073 Y53.633 E.04215 ; brim
G1 X207.569 Y54.68 E.03631 ; brim
G1 X207.778 Y55.78 E.03513 ; brim
G1 X207.758 Y58.751 E.09316 ; brim
G1 X207.438 Y59.99 E.0401 ; brim
G1 X206.868 Y60.975 E.0357 ; brim
G1 X206.144 Y61.721 E.03259 ; brim
G1 X205.382 Y62.184 E.02796 ; brim
G1 X206.18 Y62.676 E.0294 ; brim
G1 X207.073 Y63.68 E.04215 ; brim
G1 X207.569 Y64.727 E.03631 ; brim
G1 X207.778 Y65.828 E.03513 ; brim
G1 X207.758 Y68.799 E.09316 ; brim
G1 X207.438 Y70.037 E.0401 ; brim
G1 X206.868 Y71.023 E.0357 ; brim
G1 X206.144 Y71.768 E.03259 ; brim
G1 X205.382 Y72.231 E.02795 ; brim
G1 X206.18 Y72.723 E.02939 ; brim
G1 X207.073 Y73.728 E.04215 ; brim
G1 X207.569 Y74.774 E.03631 ; brim
G1 X207.778 Y75.875 E.03513 ; brim
