; generated by PrusaSlicer 2.4.2-rc1+linux-x64-GTK3 on 2022-04-13 at 12:55:23 UTC

; 

; external perimeters extrusion width = 0.45mm
; perimeters extrusion width = 0.45mm
; infill extrusion width = 0.45mm
; solid infill extrusion width = 0.45mm
; top infill extrusion width = 0.40mm
; support material extrusion width = 0.35mm
; first layer extrusion width = 0.42mm

M73 P0 R67
M73 Q0 S67
M201 X1000 Y1000 Z200 E5000 ; sets maximum accelerations, mm/sec^2
M203 X200 Y200 Z12 E120 ; sets maximum feedrates, mm / sec
M204 P1250 R1250 T1250 ; sets acceleration (P, T) and retract acceleration (R), mm/sec^2
M205 X8.00 Y8.00 Z0.40 E4.50 ; sets the jerk limits, mm/sec
M205 S0 T0 ; sets the minimum extruding and travel feed rate, mm/sec
M107 ; disable fan
;TYPE:Custom
M862.3 P "MK3S" ; printer model check
M862.1 P0.4 ; nozzle diameter check
M115 U3.10.1 ; tell printer latest fw version
G90 ; use absolute coordinates
M83 ; extruder relative mode
M104 S215 ; set extruder temp
M140 S60 ; set bed temp
M190 S60 ; wait for bed temp
M109 S215 ; wait for extruder temp
G28 W ; home all without mesh bed level
G80 ; mesh bed leveling
G1 Z0.2 F720
G1 Y-3 F1000 ; go outside print area
G92 E0
G1 X60 E9 F1000 ; intro line
G1 X100 E12.5 F1000 ; intro line
G92 E0
M221 S95

; Don't change E values below. Excessive value can damage the printer.
M907 E430 ; set extruder motor current
G21 ; set units to millimeters
G90 ; use absolute coordinates
M83 ; use relative distances for extrusion
M900 K0.05 ; Filament gcode LA 1.5
M900 K30 ; Filament gcode LA 1.0
M107 ; disable fan
;LAYER_CHANGE
;Z:0.2
;HEIGHT:0.2
;BEFORE_LAYER_CHANGE
G92 E0.0
;0.2


G1 E-.8 F2100 ; retract
G1 Z.4 F720 ; lift Z
;AFTER_LAYER_CHANGE
;0.2
G1 X28.939 Y82.315 F10800 ; move to first skirt point
G1 Z.2 F720 ; restore layer Z
G1 E.8 F2100 ;  ; unretract
M204 S800 ; adjust acceleration
;TYPE:Skirt/Brim
;WIDTH:0.42
G1 F1200
G1 X232.763 Y82.315 E6.39079 ; skirt
G1 X234.444 Y83.012 E.05704 ; skirt
M73 P0 R66
G1 X237.432 Y85.999 E.13247 ; skirt
G1 X238.128 Y87.68 E.05704 ; skirt
G1 X238.128 Y92.524 E.15188 ; skirt
G1 X237.947 Y93.434 E.02908 ; skirt
G1 X237.171 Y95.308 E.06361 ; skirt
G1 X236.671 Y96.063 E.02838 ; skirt
G1 X139.432 Y195.186 E4.35371 ; skirt
G1 X136.444 Y198.173 E.13247 ; skirt
G1 X134.763 Y198.869 E.05704 ; skirt
G1 X126.939 Y198.869 E.24535 ; skirt
G1 X125.258 Y198.173 E.05704 ; skirt
G1 X25.031 Y96.063 E4.48618 ; skirt
G1 X24.531 Y95.308 E.02838 ; skirt
G1 X23.755 Y93.434 E.06361 ; skirt
G1 X23.574 Y92.524 E.02908 ; skirt
G1 X23.574 Y87.68 E.15188 ; skirt
G1 X24.27 Y85.999 E.05704 ; skirt
G1 X27.258 Y83.012 E.13247 ; skirt
G1 X28.883 Y82.338 E.05516 ; skirt
M204 S1000 ; adjust acceleration
;WIPE_START
G1 F8640
G1 X32.175 Y82.338 E-.76 ; wipe and retract
;WIPE_END
G1 E-.04 F2100 ; retract
G1 Z.6 F720 ; lift Z
G1 X29.686 Y85.239 F10800 ; move to first brim point
G1 Z.2 F720 ; restore layer Z
G1 E.8 F2100 ;  ; unretract
M204 S800 ; adjust acceleration
G1 F1200
G1 X30.627 Y84.979 E.03061 ; brim
G1 X111.049 Y84.983 E2.52155 ; brim
G1 X112.123 Y85.197 E.03434 ; brim
G1 X113.181 Y85.679 E.03647 ; brim
G1 X114.256 Y86.58 E.04396 ; brim
G1 X115.068 Y87.855 E.04741 ; brim
G1 X115.429 Y89.141 E.0419 ; brim
G1 X115.465 Y91.807 E.08357 ; brim
G1 X115.106 Y93.244 E.04645 ; brim
G1 X114.319 Y94.522 E.04707 ; brim
G1 X113.478 Y95.302 E.03595 ; brim
G1 X112.588 Y95.811 E.03216 ; brim
G1 X111.34 Y96.167 E.04069 ; brim
G1 X93.979 Y96.196 E.54434 ; brim
G1 X130.851 Y133.068 E1.63498 ; brim
M73 Q0 S66
G1 X167.725 Y96.194 E1.63507 ; brim
M73 P1 R66
M73 Q1 S66
G1 X150.283 Y96.156 E.54689 ; brim
G1 X148.838 Y95.681 E.0477 ; brim
G1 X147.836 Y94.988 E.0382 ; brim
G1 X147.14 Y94.213 E.03265 ; brim
G1 X146.622 Y93.299 E.03294 ; brim
G1 X146.234 Y91.778 E.04924 ; brim
G1 X146.287 Y89.031 E.08612 ; brim
G1 X146.636 Y87.845 E.03877 ; brim
G1 X147.278 Y86.786 E.03882 ; brim
G1 X148.192 Y85.909 E.03974 ; brim
G1 X149.278 Y85.307 E.03893 ; brim
G1 X150.632 Y84.979 E.04368 ; brim
G1 X231.075 Y84.979 E2.52223 ; brim
G1 X232.736 Y85.439 E.05405 ; brim
G1 X233.709 Y86.062 E.03624 ; brim
G1 X234.6 Y87.016 E.04093 ; brim
G1 X235.141 Y88.025 E.03589 ; brim
G1 X235.432 Y89.158 E.03667 ; brim
G1 X235.465 Y91.825 E.08362 ; brim
G1 X235.094 Y93.362 E.04959 ; brim
G1 X234.26 Y94.708 E.04963 ; brim
G1 X137.42 Y191.548 E4.29406 ; brim
G1 X137.371 Y192.413 E.02717 ; brim
G1 X137.055 Y193.367 E.03151 ; brim
G1 X136.636 Y194.118 E.02694 ; brim
G1 X135.942 Y194.919 E.03324 ; brim
G1 X134.74 Y195.742 E.04568 ; brim
G1 X133.335 Y196.17 E.04605 ; brim
G1 X128.62 Y196.206 E.14784 ; brim
G1 X127.053 Y195.783 E.05089 ; brim
G1 X125.802 Y194.958 E.04699 ; brim
G1 X125.079 Y194.135 E.03435 ; brim
G1 X124.567 Y193.177 E.03407 ; brim
G1 X124.277 Y192.089 E.0353 ; brim
G1 X124.253 Y191.519 E.01787 ; brim
G1 X27.442 Y94.708 E4.29278 ; brim
G1 X26.608 Y93.362 E.04963 ; brim
G1 X26.237 Y91.825 E.04959 ; brim
G1 X26.27 Y89.158 E.08362 ; brim
G1 X26.561 Y88.025 E.03667 ; brim
G1 X27.102 Y87.016 E.03589 ; brim
G1 X27.993 Y86.062 E.04093 ; brim
G1 X28.966 Y85.439 E.03624 ; brim
G1 X29.629 Y85.255 E.02156 ; brim
M204 S1000 ; adjust acceleration
G1 X29.727 Y85.612 F10800 ; move to first brim point
M204 S800 ; adjust acceleration
G1 F1200
G1 X30.653 Y85.356 E.03011 ; brim
G1 X111.03 Y85.36 E2.52016 ; brim
G1 X112.026 Y85.562 E.03187 ; brim
G1 X112.999 Y86.011 E.03361 ; brim
G1 X113.989 Y86.848 E.04066 ; brim
G1 X114.734 Y88.031 E.04382 ; brim
G1 X115.059 Y89.217 E.03855 ; brim
G1 X115.088 Y91.786 E.08055 ; brim
G1 X114.748 Y93.122 E.04323 ; brim
G1 X114.013 Y94.301 E.04356 ; brim
G1 X113.271 Y94.986 E.03168 ; brim
G1 X112.46 Y95.456 E.0294 ; brim
G1 X111.312 Y95.79 E.03748 ; brim
G1 X93.07 Y95.82 E.57197 ; brim
G1 X130.851 Y133.601 E1.67528 ; brim
G1 X168.634 Y95.818 E1.67535 ; brim
G1 X150.314 Y95.779 E.5744 ; brim
M73 P1 R65
G1 X149.029 Y95.355 E.04242 ; brim
G1 X148.1 Y94.717 E.03533 ; brim
G1 X147.456 Y94.007 E.03007 ; brim
G1 X146.98 Y93.179 E.02994 ; brim
G1 X146.611 Y91.759 E.04602 ; brim
G1 X146.663 Y89.065 E.08448 ; brim
G1 X146.99 Y87.978 E.03559 ; brim
G1 X147.586 Y87.004 E.03579 ; brim
G1 X148.398 Y86.226 E.03527 ; brim
G1 X149.394 Y85.667 E.03581 ; brim
G1 X150.655 Y85.356 E.04073 ; brim
G1 X231.049 Y85.356 E2.52071 ; brim
G1 X232.558 Y85.773 E.04908 ; brim
M73 P2 R65
M73 Q2 S66
G1 X233.452 Y86.339 E.03317 ; brim
G1 X234.28 Y87.217 E.03785 ; brim
G1 X234.798 Y88.182 E.03435 ; brim
G1 X235.061 Y89.227 E.03379 ; brim
G1 X235.088 Y91.804 E.0808 ; brim
G1 X234.735 Y93.243 E.04643 ; brim
G1 X233.979 Y94.456 E.04483 ; brim
G1 X137.05 Y191.385 E4.29798 ; brim
G1 X137.004 Y192.321 E.02938 ; brim
G1 X136.715 Y193.201 E.02906 ; brim
G1 X136.338 Y193.886 E.02452 ; brim
G1 X135.674 Y194.653 E.03182 ; brim
G1 X134.553 Y195.413 E.04245 ; brim
G1 X133.253 Y195.801 E.04252 ; brim
G1 X128.644 Y195.829 E.14453 ; brim
G1 X127.182 Y195.428 E.04753 ; brim
G1 X126.068 Y194.689 E.04192 ; brim
G1 X125.401 Y193.937 E.03151 ; brim
G1 X124.91 Y193.019 E.03265 ; brim
G1 X124.647 Y192.015 E.03254 ; brim
G1 X124.626 Y191.358 E.02059 ; brim
G1 X27.723 Y94.456 E4.29681 ; brim
G1 X26.967 Y93.243 E.04483 ; brim
G1 X26.614 Y91.804 E.04643 ; brim
G1 X26.641 Y89.227 E.0808 ; brim
G1 X26.904 Y88.182 E.03379 ; brim
G1 X27.422 Y87.217 E.03435 ; brim
G1 X28.25 Y86.339 E.03785 ; brim
G1 X29.144 Y85.773 E.03317 ; brim
G1 X29.669 Y85.628 E.01709 ; brim
M204 S1000 ; adjust acceleration
G1 X29.767 Y85.984 F10800 ; move to first brim point
M204 S800 ; adjust acceleration
M73 Q2 S65
G1 F1200
G1 X30.678 Y85.733 E.02962 ; brim
G1 X111.01 Y85.737 E2.51875 ; brim
G1 X111.927 Y85.926 E.02936 ; brim
G1 X112.816 Y86.341 E.03075 ; brim
G1 X113.721 Y87.115 E.03736 ; brim
G1 X114.398 Y88.205 E.04023 ; brim
G1 X114.688 Y89.291 E.03522 ; brim
G1 X114.71 Y91.764 E.07755 ; brim
G1 X114.391 Y92.998 E.03998 ; brim
G1 X113.708 Y94.077 E.04005 ; brim
G1 X113.063 Y94.672 E.0275 ; brim
G1 X112.329 Y95.102 E.02666 ; brim
G1 X111.284 Y95.413 E.03421 ; brim
G1 X92.161 Y95.444 E.59958 ; brim
G1 X130.851 Y134.134 E1.71558 ; brim
G1 X169.542 Y95.443 E1.71563 ; brim
G1 X150.345 Y95.402 E.60191 ; brim
G1 X149.219 Y95.029 E.03719 ; brim
G1 X148.363 Y94.446 E.03248 ; brim
G1 X147.771 Y93.799 E.02751 ; brim
G1 X147.338 Y93.057 E.02693 ; brim
G1 X146.989 Y91.739 E.04275 ; brim
G1 X147.04 Y89.099 E.0828 ; brim
G1 X147.343 Y88.112 E.03239 ; brim
G1 X147.866 Y87.258 E.03138 ; brim
G1 X148.606 Y86.541 E.03232 ; brim
G1 X149.511 Y86.026 E.03266 ; brim
G1 X150.679 Y85.733 E.03773 ; brim
G1 X231.024 Y85.733 E2.51918 ; brim
G1 X232.382 Y86.107 E.04416 ; brim
G1 X233.196 Y86.617 E.03011 ; brim
G1 X233.961 Y87.419 E.03478 ; brim
G1 X234.438 Y88.298 E.03134 ; brim
G1 X234.689 Y89.298 E.03232 ; brim
G1 X234.71 Y91.784 E.07797 ; brim
G1 X234.399 Y93.07 E.04149 ; brim
G1 X233.696 Y94.205 E.04185 ; brim
G1 X136.679 Y191.223 E4.30193 ; brim
G1 X136.637 Y192.23 E.0316 ; brim
M73 P3 R65
M73 Q3 S65
G1 X136.376 Y193.037 E.0266 ; brim
G1 X136.039 Y193.655 E.02206 ; brim
G1 X135.405 Y194.387 E.03037 ; brim
G1 X134.368 Y195.083 E.03917 ; brim
G1 X133.174 Y195.431 E.03899 ; brim
G1 X128.669 Y195.452 E.14125 ; brim
G1 X127.313 Y195.073 E.04415 ; brim
G1 X126.334 Y194.421 E.03689 ; brim
G1 X125.698 Y193.704 E.03003 ; brim
G1 X125.254 Y192.863 E.02982 ; brim
G1 X125.018 Y191.943 E.02979 ; brim
G1 X125 Y191.199 E.02333 ; brim
G1 X28.006 Y94.205 E4.30087 ; brim
G1 X27.303 Y93.07 E.04185 ; brim
G1 X26.992 Y91.784 E.04149 ; brim
G1 X27.013 Y89.298 E.07797 ; brim
G1 X27.264 Y88.298 E.03232 ; brim
G1 X27.741 Y87.419 E.03134 ; brim
G1 X28.506 Y86.617 E.03478 ; brim
G1 X29.32 Y86.107 E.03011 ; brim
G1 X29.709 Y86 E.01266 ; brim
M204 S1000 ; adjust acceleration
G1 X29.807 Y86.356 F10800 ; move to first brim point
M204 S800 ; adjust acceleration
G1 F1200
G1 X30.703 Y86.11 E.02913 ; brim
G1 X110.99 Y86.114 E2.51733 ; brim
G1 X111.827 Y86.29 E.02681 ; brim
M73 P3 R64
G1 X112.631 Y86.671 E.02788 ; brim
G1 X113.452 Y87.38 E.03404 ; brim
G1 X114.061 Y88.377 E.03663 ; brim
G1 X114.317 Y89.362 E.0319 ; brim
G1 X114.333 Y91.741 E.07458 ; brim
G1 X114.034 Y92.873 E.03673 ; brim
G1 X113.433 Y93.818 E.0351 ; brim
G1 X112.854 Y94.357 E.02482 ; brim
G1 X112.158 Y94.765 E.0253 ; brim
G1 X111.255 Y95.036 E.02954 ; brim
G1 X91.252 Y95.069 E.62719 ; brim
G1 X130.851 Y134.668 E1.75588 ; brim
G1 X170.451 Y95.068 E1.75591 ; brim
G1 X150.376 Y95.025 E.62942 ; brim
G1 X149.409 Y94.702 E.03199 ; brim
G1 X148.625 Y94.174 E.02964 ; brim
G1 X148.084 Y93.588 E.02498 ; brim
G1 X147.695 Y92.933 E.02391 ; brim
G1 X147.366 Y91.719 E.03942 ; brim
G1 X147.416 Y89.134 E.08108 ; brim
G1 X147.695 Y88.247 E.02914 ; brim
G1 X148.146 Y87.511 E.02708 ; brim
G1 X148.816 Y86.855 E.0294 ; brim
G1 X149.631 Y86.384 E.0295 ; brim
G1 X150.703 Y86.11 E.03469 ; brim
G1 X230.999 Y86.11 E2.51763 ; brim
G1 X232.207 Y86.442 E.0393 ; brim
G1 X232.942 Y86.896 E.02707 ; brim
G1 X233.642 Y87.622 E.03164 ; brim
G1 X234.095 Y88.456 E.02974 ; brim
G1 X234.318 Y89.365 E.02936 ; brim
G1 X234.333 Y91.763 E.07517 ; brim
G1 X234.04 Y92.95 E.03835 ; brim
G1 X233.415 Y93.953 E.03706 ; brim
G1 X136.308 Y191.06 E4.30588 ; brim
G1 X136.262 Y192.187 E.03536 ; brim
G1 X136.023 Y192.902 E.02362 ; brim
G1 X135.741 Y193.424 E.01861 ; brim
G1 X135.137 Y194.12 E.0289 ; brim
G1 X134.185 Y194.752 E.03584 ; brim
G1 X133.097 Y195.061 E.03547 ; brim
G1 X128.695 Y195.075 E.13801 ; brim
G1 X127.445 Y194.719 E.04074 ; brim
G1 X126.599 Y194.151 E.03196 ; brim
G1 X126.021 Y193.507 E.02712 ; brim
G1 X125.599 Y192.708 E.02835 ; brim
G1 X125.389 Y191.873 E.02698 ; brim
G1 X125.374 Y191.04 E.02611 ; brim
G1 X28.287 Y93.953 E4.30501 ; brim
G1 X27.662 Y92.95 E.03706 ; brim
M73 P4 R64
M73 Q4 S64
G1 X27.369 Y91.763 E.03835 ; brim
G1 X27.384 Y89.365 E.07517 ; brim
G1 X27.607 Y88.456 E.02936 ; brim
G1 X28.06 Y87.622 E.02974 ; brim
G1 X28.76 Y86.896 E.03164 ; brim
G1 X29.495 Y86.442 E.02707 ; brim
G1 X29.749 Y86.372 E.00828 ; brim
M204 S1000 ; adjust acceleration
G1 X29.847 Y86.729 F10800 ; move to first brim point
M204 S800 ; adjust acceleration
G1 F1200
G1 X30.729 Y86.487 E.02865 ; brim
G1 X110.969 Y86.491 E2.5159 ; brim
G1 X111.724 Y86.654 E.02422 ; brim
G1 X112.443 Y86.999 E.025 ; brim
G1 X113.181 Y87.644 E.03072 ; brim
G1 X113.723 Y88.546 E.03301 ; brim
G1 X113.946 Y89.431 E.0286 ; brim
G1 X113.956 Y91.716 E.07166 ; brim
G1 X113.678 Y92.747 E.03346 ; brim
G1 X113.159 Y93.558 E.03019 ; brim
G1 X112.613 Y94.066 E.0234 ; brim
G1 X111.988 Y94.428 E.02265 ; brim
G1 X111.227 Y94.659 E.02494 ; brim
G1 X90.343 Y94.693 E.65479 ; brim
G1 X130.851 Y135.201 E1.79618 ; brim
G1 X171.359 Y94.693 E1.79619 ; brim
G1 X150.409 Y94.648 E.65687 ; brim
G1 X149.556 Y94.354 E.0283 ; brim
G1 X148.886 Y93.901 E.02537 ; brim
G1 X148.396 Y93.375 E.02253 ; brim
G1 X148.051 Y92.806 E.02087 ; brim
G1 X147.744 Y91.699 E.03603 ; brim
G1 X147.793 Y89.17 E.07931 ; brim
G1 X148.046 Y88.386 E.02581 ; brim
G1 X148.454 Y87.731 E.02421 ; brim
G1 X149.062 Y87.142 E.02652 ; brim
G1 X149.751 Y86.742 E.025 ; brim
G1 X150.727 Y86.487 E.03163 ; brim
G1 X230.974 Y86.487 E2.51607 ; brim
G1 X232.034 Y86.778 E.03449 ; brim
G1 X232.689 Y87.177 E.02405 ; brim
G1 X233.325 Y87.828 E.02852 ; brim
G1 X233.735 Y88.571 E.0266 ; brim
G1 X233.946 Y89.433 E.02785 ; brim
G1 X233.956 Y91.741 E.07237 ; brim
G1 X233.703 Y92.778 E.03345 ; brim
G1 X233.132 Y93.702 E.03407 ; brim
G1 X135.937 Y190.898 E4.3098 ; brim
G1 X135.886 Y192.143 E.03909 ; brim
G1 X135.672 Y192.764 E.02059 ; brim
G1 X135.442 Y193.193 E.01526 ; brim
G1 X134.87 Y193.853 E.02739 ; brim
G1 X134.004 Y194.42 E.03245 ; brim
G1 X133.021 Y194.691 E.03195 ; brim
G1 X128.722 Y194.698 E.13481 ; brim
G1 X127.58 Y194.365 E.0373 ; brim
G1 X126.864 Y193.882 E.02707 ; brim
G1 X126.318 Y193.274 E.02564 ; brim
G1 X125.944 Y192.555 E.02539 ; brim
G1 X125.761 Y191.806 E.02419 ; brim
G1 X125.75 Y190.883 E.02893 ; brim
G1 X28.57 Y93.702 E4.30914 ; brim
G1 X27.999 Y92.778 E.03407 ; brim
M73 P4 R63
G1 X27.746 Y91.741 E.03345 ; brim
G1 X27.756 Y89.433 E.07237 ; brim
G1 X27.967 Y88.571 E.02785 ; brim
G1 X28.377 Y87.828 E.0266 ; brim
G1 X29.012 Y87.177 E.02852 ; brim
G1 X29.668 Y86.778 E.02405 ; brim
G1 X29.789 Y86.745 E.00396 ; brim
M204 S1000 ; adjust acceleration
G1 X29.887 Y87.102 F10800 ; move to first brim point
M204 S800 ; adjust acceleration
G1 F1200
G1 X30.754 Y86.864 E.02817 ; brim
G1 X110.948 Y86.868 E2.51444 ; brim
G1 X111.62 Y87.017 E.02158 ; brim
G1 X112.254 Y87.326 E.02212 ; brim
G1 X112.908 Y87.905 E.02738 ; brim
G1 X113.384 Y88.712 E.02938 ; brim
G1 X113.574 Y89.497 E.02532 ; brim
G1 X113.579 Y91.691 E.06878 ; brim
G1 X113.323 Y92.618 E.03016 ; brim
G1 X112.886 Y93.298 E.02534 ; brim
G1 X112.372 Y93.775 E.022 ; brim
G1 X111.854 Y94.075 E.01876 ; brim
G1 X111.196 Y94.282 E.02161 ; brim
G1 X89.434 Y94.318 E.68233 ; brim
G1 X130.851 Y135.734 E1.83649 ; brim
M73 P5 R63
G1 X172.267 Y94.318 E1.83648 ; brim
M73 Q5 S64
G1 X150.443 Y94.271 E.68428 ; brim
G1 X149.706 Y94.008 E.02454 ; brim
G1 X149.146 Y93.627 E.02125 ; brim
G1 X148.705 Y93.159 E.02014 ; brim
G1 X148.405 Y92.676 E.01783 ; brim
G1 X148.122 Y91.677 E.03256 ; brim
G1 X148.169 Y89.207 E.07748 ; brim
G1 X148.396 Y88.529 E.0224 ; brim
G1 X148.76 Y87.951 E.02141 ; brim
G1 X149.273 Y87.455 E.02238 ; brim
G1 X149.875 Y87.099 E.02192 ; brim
G1 X150.753 Y86.864 E.02849 ; brim
G1 X230.948 Y86.864 E2.51448 ; brim
G1 X231.863 Y87.115 E.02974 ; brim
G1 X232.439 Y87.46 E.02106 ; brim
G1 X233.008 Y88.033 E.02531 ; brim
G1 X233.392 Y88.73 E.02493 ; brim
G1 X233.574 Y89.498 E.02477 ; brim
G1 X233.579 Y91.718 E.06961 ; brim
G1 X233.345 Y92.657 E.03035 ; brim
G1 X232.851 Y93.451 E.02931 ; brim
G1 X135.566 Y190.735 E4.31375 ; brim
G1 X135.51 Y192.098 E.04277 ; brim
M73 Q5 S63
G1 X135.322 Y192.624 E.0175 ; brim
G1 X135.142 Y192.963 E.01203 ; brim
G1 X134.603 Y193.586 E.02584 ; brim
G1 X133.826 Y194.087 E.02899 ; brim
G1 X132.949 Y194.32 E.02845 ; brim
G1 X128.75 Y194.32 E.13166 ; brim
G1 X127.716 Y194.013 E.03383 ; brim
G1 X127.129 Y193.613 E.02224 ; brim
G1 X126.615 Y193.04 E.02415 ; brim
G1 X126.29 Y192.404 E.02241 ; brim
G1 X126.138 Y191.78 E.02014 ; brim
